Modules/BetterCms.Module.Root/Scss/base_64/icons/editor-link.svg

<svg xmlns="http://www.w3.org/2000/svg" width="14" height="7" viewBox="0 0 14 7" enable-background="new 0 0 14 7">
 <path fill="#474747" d="m3 0c-1.6 0-3 1.4-3 3v1c0 1.6 1.4 3 3 3h3l1-1 1 1h3c1.6 0 3-1.4 3-3v-1c0-1.6-1.4-3-3-3h-3l-1 1-1-1h-3m0 1h3v1h-3c-.6 0-1 .4-1 1v1c0 .6.4 1 1 1h3v1h-3c-1.1 0-2-.9-2-2v-1c0-1.1.9-2 2-2m5 0h3c1.1 0 2 .9 2 2v1c0 1.1-.9 2-2 2h-3v-1h3c.6 0 1-.4 1-1v-1c0-.6-.4-1-1-1h-3v-1m-4.5 2h7c.3 0 .5.2.5.5 0 .3-.2.5-.5.5h-7c-.3 0-.5-.2-.5-.5 0-.3.2-.5.5-.5"/>
</svg>

<svg version="1.1" id="Layer_1" xmlns="http://www.w3.org/2000/svg" xmlns:xlink="http://www.w3.org/1999/xlink" x="0px" y="0px"
	 width="14px" height="7px" viewBox="0 0 14 7" enable-background="new 0 0 14 7" xml:space="preserve">
<path id="path4606" fill="#474747" d="M3,0C1.4,0,0,1.4,0,3v1c0,1.6,1.4,3,3,3h3l1-1l1,1h3c1.6,0,3-1.4,3-3V3c0-1.6-1.4-3-3-3H8L7,1L6,0H3z M3,1h3v1H3C2.4,2,2,2.4,2,3v1
	c0,0.6,0.4,1,1,1h3v1H3C1.9,6,1,5.1,1,4V3C1,1.9,1.9,1,3,1z M8,1h3c1.1,0,2,0.9,2,2v1c0,1.1-0.9,2-2,2H8V5h3c0.6,0,1-0.4,1-1V3
	c0-0.6-0.4-1-1-1H8V1z M3.5,3h7C10.8,3,11,3.2,11,3.5C11,3.8,10.8,4,10.5,4h-7C3.2,4,3,3.8,3,3.5C3,3.2,3.2,3,3.5,3z"/>
</svg>
